dist/assets/group-554.svg

<svg width="50" height="50" viewBox="0 0 50 50" fill="none" xmlns="http://www.w3.org/2000/svg">
<path d="M19.1407 12.5027L25 0H40.9829L42.1502 12.5027H19.1407Z" fill="#F8C67C"/>
<path d="M7.84952 12.5027L9.0168 0H24.9997V12.5027H7.84952Z" fill="#F8C67C"/>
<path d="M25 50L19.1407 27.9297L25 5.85938H34.8576C36.6865 5.85938 38.4381 6.5376 39.7901 7.76924C41.142 9.00088 41.9802 10.6819 42.1501 12.5027L45.6509 50H25Z" fill="#F39321"/>
<path d="M10.2098 7.76924C11.5618 6.5376 13.3134 5.85938 15.1422 5.85938H24.9999V50H4.34888L7.84966 12.5027C8.01968 10.6818 8.85786 9.00078 10.2098 7.76924Z" fill="#F3A141"/>
</svg>

<svg width="50" height="50" fill="none" xmlns="http://www.w3.org/2000/svg"><path d="M19.14 12.503L25 0h15.983l1.167 12.503H19.14z" fill="#F8C67C"/><path d="M7.85 12.503L9.017 0H25v12.503H7.85z" fill="#F8C67C"/><path d="M25 50l-5.86-22.07L25 5.86h9.858c1.829 0 3.58.678 4.932 1.91a7.308 7.308 0 012.36 4.733L45.65 50H25z" fill="#F39321"/><path d="M10.21 7.77a7.309 7.309 0 014.932-1.91H25V50H4.349l3.5-37.497a7.308 7.308 0 012.36-4.734z" fill="#F3A141"/></svg>
